X: 43042
T: Wind Chimes And Nursery Rhymes
R: waltz
M: 3/4
K: Gmajor
|:Bc d2 d2|d2 d2 d2|Bc d2 dA|B2 B2 B2|
ef g2 g2|dB G2 GB|c2 A2 A2|A2 A2 A2|
Bc d2 d2|d2 d2 d2|Bc d2 dA|B2 B2 B2|
ef g2 g2|dB G2 GB|c2 A2 GF|G2 G2 DD||
|:AB cd A2|Bc d2 Bd|cd ef fg|d2 d2 d2|
g2 g2 ag|fe de fd|ed cd e2|d2 d2 d2|
Bc d2 d2|d2 d2 d2|Bc d2 dA|B2 B2 B2|
[1ef g2 g2|dB G2 GB|c2 A2 GF|G2 G2 G2:|
[2ef g2 g2|dB G2 G2|ef g2 g2|dB G2 G2|
ef g2 g2|dB G2 GB|c2 A2 GF|G2 G2 G2||

